logos/mesos.svg

<?xml version="1.0" encoding="UTF-8" standalone="no"?>
<svg width="256px" height="291px" viewBox="0 0 256 291" version="1.1" xmlns="http://www.w3.org/2000/svg" xmlns:xlink="http://www.w3.org/1999/xlink" preserveAspectRatio="xMidYMid">
	<g>
		<path d="M190.180109,177.16993 L190.180109,113.804451 L135.537556,145.539486 L190.180109,177.16993" fill="#FFFFFF"></path>
		<path d="M186.644918,107.621603 L131.906739,75.9702412 L131.906739,139.348669 L186.644918,107.621603" fill="#00AEDE"></path>
		<path d="M124.792529,139.346677 L124.792529,75.968249 L70.0155019,107.619611 L124.792529,139.346677" fill="#00AEDE"></path>
		<path d="M121.252358,69.8870039 L66.5271284,38.052358 L66.5271284,101.52442 L121.252358,69.8870039" fill="#00AEDE"></path>
		<path d="M186.644918,183.259144 L131.906739,151.635673 L131.906739,215.00414 L186.644918,183.259144" fill="#FFFFFF"></path>
		<path d="M124.792529,215.005136 L124.792529,151.633681 L70.0155019,183.261136 L124.792529,215.005136" fill="#FFFFFF"></path>
		<path d="M252.113183,145.53849 L197.295315,113.80744 L197.295315,177.168934 L252.113183,145.53849" fill="#00AEDE"></path>
		<path d="M59.3989728,101.52442 L59.3989728,38.052358 L4.2633463,69.8870039 L59.3989728,101.52442" fill="#00AEDE"></path>
		<path d="M121.252358,221.095346 L66.5271284,189.375253 L66.5271284,252.826397 L121.252358,221.095346" fill="#FFFFFF"></path>
		<path d="M59.3989728,252.827393 L59.3989728,189.377245 L4.2633463,221.097339 L59.3989728,252.827393" fill="#00AEDE"></path>
		<path d="M121.252358,145.53849 L66.5271284,113.80744 L66.5271284,177.168934 L121.252358,145.53849" fill="#FFFFFF"></path>
		<path d="M190.180109,101.52442 L190.180109,38.052358 L135.537556,69.8870039 L190.180109,101.52442" fill="#00AEDE"></path>
		<path d="M131.908732,0.318754864 L131.908732,63.6762646 L186.646911,31.9561712 L131.908732,0.318754864" fill="#FFFFFF"></path>
		<path d="M70.0145058,31.9561712 L124.791533,63.6762646 L124.791533,0.318754864 L70.0145058,31.9561712" fill="#FFFFFF"></path>
		<path d="M186.644918,258.91063 L131.906739,227.294132 L131.906739,290.641681 L186.644918,258.91063" fill="#FFFFFF"></path>
		<path d="M124.792529,290.643673 L124.792529,227.29214 L70.0155019,258.912623 L124.792529,290.643673" fill="#FFFFFF"></path>
		<path d="M255.660327,215.005136 L255.660327,151.633681 L200.983907,183.261136 L255.660327,215.005136" fill="#00AEDE"></path>
		<path d="M59.3989728,177.16993 L59.3989728,113.70484 L4.2633463,145.539486 L59.3989728,177.16993" fill="#00AEDE"></path>
		<path d="M55.871751,183.259144 L0.656435798,151.635673 L0.656435798,215.00414 L55.871751,183.259144" fill="#00AEDE"></path>
		<path d="M255.660327,139.346677 L255.660327,75.968249 L200.983907,107.619611 L255.660327,139.346677" fill="#00AEDE"></path>
		<path d="M252.113183,69.8870039 L197.295315,38.052358 L197.295315,101.52442 L252.113183,69.8870039" fill="#00AEDE"></path>
		<path d="M252.113183,221.095346 L197.295315,189.375253 L197.295315,252.826397 L252.113183,221.095346" fill="#00AEDE"></path>
		<path d="M190.180109,252.827393 L190.180109,189.377245 L135.537556,221.097339 L190.180109,252.827393" fill="#FFFFFF"></path>
		<path d="M55.871751,107.621603 L0.656435798,75.9702412 L0.656435798,139.348669 L55.871751,107.621603" fill="#00AEDE"></path>
	</g>
</svg>

<svg width="256" height="291" xmlns="http://www.w3.org/2000/svg" preserveAspectRatio="xMidYMid">
	<path d="M190.18 177.17v-63.366l-54.642 31.735 54.642 31.63" fill="#FFF"/>
	<path d="M186.645 107.622 131.907 75.97v63.379l54.738-31.727" fill="#00AEDE"/>
	<path d="M124.793 139.347V75.968L70.016 107.62l54.777 31.727" fill="#00AEDE"/>
	<path d="M121.252 69.887 66.527 38.052v63.472l54.725-31.637" fill="#00AEDE"/>
	<path d="m186.645 183.26-54.738-31.624v63.368l54.738-31.745" fill="#FFF"/>
	<path d="M124.793 215.005v-63.371L70.016 183.26l54.777 31.744" fill="#FFF"/>
	<path d="m252.113 145.538-54.818-31.73v63.36l54.818-31.63" fill="#00AEDE"/>
	<path d="M59.399 101.524V38.052L4.263 69.887 59.4 101.524" fill="#00AEDE"/>
	<path d="m121.252 221.095-54.725-31.72v63.451l54.725-31.73" fill="#FFF"/>
	<path d="M59.399 252.827v-63.45l-55.136 31.72 55.136 31.73" fill="#00AEDE"/>
	<path d="m121.252 145.538-54.725-31.73v63.36l54.725-31.63" fill="#FFF"/>
	<path d="M190.18 101.524V38.052l-54.642 31.835 54.642 31.637" fill="#00AEDE"/>
	<path d="M131.909.319v63.357l54.738-31.72L131.909.32" fill="#FFF"/>
	<path d="m70.015 31.956 54.777 31.72V.32L70.015 31.956" fill="#FFF"/>
	<path d="m186.645 258.91-54.738-31.616v63.348l54.738-31.731" fill="#FFF"/>
	<path d="M124.793 290.644v-63.352l-54.777 31.62 54.777 31.732" fill="#FFF"/>
	<path d="M255.66 215.005v-63.371l-54.676 31.627 54.676 31.744" fill="#00AEDE"/>
	<path d="M59.399 177.17v-63.465L4.263 145.539 59.4 177.17" fill="#00AEDE"/>
	<path d="M55.872 183.26.656 151.635v63.368l55.216-31.745" fill="#00AEDE"/>
	<path d="M255.66 139.347V75.968l-54.676 31.652 54.676 31.727" fill="#00AEDE"/>
	<path d="m252.113 69.887-54.818-31.835v63.472l54.818-31.637" fill="#00AEDE"/>
	<path d="m252.113 221.095-54.818-31.72v63.451l54.818-31.73" fill="#00AEDE"/>
	<path d="M190.18 252.827v-63.45l-54.642 31.72 54.642 31.73" fill="#FFF"/>
	<path d="M55.872 107.622.656 75.97v63.379l55.216-31.727" fill="#00AEDE"/>
</svg>
